IMB-X-Files/The-Ambassadors-Assets/65f43207d48584352641671d_grid.svg

<svg fill="none" height="245" viewBox="0 0 245 245" width="245" xmlns="http://www.w3.org/2000/svg"><path d="m1 61.75v-52.75c0-4.41828 3.58172-8 8-8h52.75m-60.75 60.75v60.75m0-60.75h60.75m-60.75 60.75v60.75m0-60.75h60.75m-60.75 60.75v52.75c0 4.418 3.58172 8 8 8h52.75m-60.75-60.75h60.75m0-182.25v60.75m0-60.75h60.75m-60.75 60.75v60.75m0-60.75h60.75m-60.75 60.75v60.75m0-60.75h60.75m-60.75 60.75v60.75m0-60.75h60.75m-60.75 60.75h60.75m0-243v60.75m0-60.75h60.75m-60.75 60.75v60.75m0-60.75h60.75m-60.75 60.75v60.75m0-60.75h60.75m-60.75 60.75v60.75m0-60.75h60.75m-60.75 60.75h60.75m0-243v60.75m0-60.75h52.75c4.418 0 8 3.58172 8 8v52.75m-60.75 0v60.75m0-60.75h60.75m-60.75 60.75v60.75m0-60.75h60.75m-60.75 60.75v60.75m0-60.75h60.75m-60.75 60.75h52.75c4.418 0 8-3.582 8-8v-52.75m0-121.5v60.75m0 0v60.75" opacity=".15" stroke="#e3e5e8"/></svg>

<svg width="245" height="245" viewBox="0 0 245 245" fill="none" xmlns="http://www.w3.org/2000/svg">
    <path opacity="0.15"
        d="M1 61.75V9C1 4.58172 4.58172 1 9 1H61.75M1 61.75V122.5M1 61.75H61.75M1 122.5V183.25M1 122.5H61.75M1 183.25V236C1 240.418 4.58172 244 9 244H61.75M1 183.25H61.75M61.75 1V61.75M61.75 1H122.5M61.75 61.75V122.5M61.75 61.75H122.5M61.75 122.5V183.25M61.75 122.5H122.5M61.75 183.25V244M61.75 183.25H122.5M61.75 244H122.5M122.5 1V61.75M122.5 1H183.25M122.5 61.75V122.5M122.5 61.75H183.25M122.5 122.5V183.25M122.5 122.5H183.25M122.5 183.25V244M122.5 183.25H183.25M122.5 244H183.25M183.25 1V61.75M183.25 1H236C240.418 1 244 4.58172 244 9V61.75M183.25 61.75V122.5M183.25 61.75H244M183.25 122.5V183.25M183.25 122.5H244M183.25 183.25V244M183.25 183.25H244M183.25 244H236C240.418 244 244 240.418 244 236V183.25M244 61.75V122.5M244 122.5V183.25"
        stroke="#E3E5E8" />
</svg>
